app/images/icon/time.svg

<svg width="25" height="25" viewBox="0 0 25 25" fill="none" xmlns="http://www.w3.org/2000/svg">
<path fill-rule="evenodd" clip-rule="evenodd" d="M0 12.5C0 5.60748 5.6075 0 12.5 0C19.3925 0 25 5.60748 25 12.5C25 19.3925 19.3925 25 12.5 25C5.6075 25 0 19.3925 0 12.5ZM2.65945 12.5004C2.65945 17.9265 7.07408 22.3406 12.4999 22.3406C17.9258 22.3406 22.3404 17.9265 22.3404 12.5004C22.3404 7.07428 17.9258 2.66016 12.4999 2.66016C7.07408 2.66016 2.65945 7.07428 2.65945 12.5004Z" fill="#FFC59E"/>
<path d="M19.0149 12.1141H13.3973V5.3598C13.3973 4.7914 12.9365 4.33057 12.3681 4.33057C11.7997 4.33057 11.3389 4.7914 11.3389 5.3598V13.1433C11.3389 13.7117 11.7997 14.1726 12.3681 14.1726H19.0149C19.5833 14.1726 20.0441 13.7117 20.0441 13.1433C20.0441 12.575 19.5833 12.1141 19.0149 12.1141Z" fill="#FFC59E"/>
</svg>

<svg width="25" height="25" fill="none" xmlns="http://www.w3.org/2000/svg"><path fill-rule="evenodd" clip-rule="evenodd" d="M0 12.5C0 5.607 5.607 0 12.5 0 19.392 0 25 5.607 25 12.5 25 19.392 19.392 25 12.5 25 5.607 25 0 19.392 0 12.5zm2.66 0c0 5.427 4.414 9.84 9.84 9.84s9.84-4.413 9.84-9.84c0-5.426-4.414-9.84-9.84-9.84S2.66 7.074 2.66 12.5z" fill="#FFC59E"/><path d="M19.015 12.114h-5.618V5.36a1.03 1.03 0 00-2.058 0v7.783c0 .569.46 1.03 1.03 1.03h6.646a1.03 1.03 0 000-2.059z" fill="#FFC59E"/></svg>
